T: Highland Donald
M: 4/4
L: 1/8
K: Bmin
|: BA |F2 B2 B2 AB | c2 B2 B2 cB | A3 F E2 F2 | A2 B2 A3 E |
F2 B2 B2 AB | c2 B2 B2 cB | A3 F E2 F2 | B4 B2 :|
|: Ac |d4 d3 e | f2 d2 B2 A2 | e4 e3 f | gfed B2 A2 |
d3 e f2 d2 | B2 d2 A2 F2 | B3 A F2 A2 | B4 B2 :|
